svgs/solid/signs-post.svg

<svg xmlns="http://www.w3.org/2000/svg" viewBox="0 0 512 512"><!--! Font Awesome Pro 6.0.0-alpha3 by @fontawesome - https://fontawesome.com License - https://fontawesome.com/license (Commercial License) --><path d="M224 496C224 504.9 231.1 512 240 512h32c8.875 0 16-7.125 16-16V384H224V496zM455.1 224h-167.1l-.0313-32h-64l.0313 32H70.57c-8.5 0-16.63 3.375-22.63 9.375L4.688 276.8c-6.25 6.25-6.25 16.38 0 22.62l43.25 43.25C53.94 348.6 62.06 352 70.56 352h385.4c13.25 0 24-10.75 24-24v-80C479.9 234.8 469.2 224 455.1 224zM507.3 84.75l-43.25-43.38C458.1 35.38 449.9 32 441.4 32h-153.4V16c0-8.875-7.125-16-16-16h-32c-8.875 0-16 7.125-16 16V32H55.94C42.69 32 31.94 42.75 31.94 56v80c0 13.25 10.75 24 24 24h385.5c8.5 0 16.62-3.375 22.62-9.375l43.25-43.25C513.6 101 513.6 91 507.3 84.75z"/></svg>

<svg xmlns="http://www.w3.org/2000/svg" viewBox="0 0 512 512"><!-- Font Awesome Pro 6.0.0-alpha2 by @fontawesome - https://fontawesome.com License - https://fontawesome.com/license (Commercial License) --><path d="M224 496C224 504.875 231.125 512 240 512H272C280.875 512 288 504.875 288 496V384H224V496ZM455.937 224H287.937V192H223.937V224H70.562C62.062 224 53.938 227.375 47.938 233.375L4.688 276.75C-1.563 283 -1.563 293.125 4.688 299.375L47.938 342.625C53.938 348.625 62.062 352 70.562 352H455.937C469.187 352 479.937 341.25 479.937 328V248C479.937 234.75 469.187 224 455.937 224ZM507.312 84.75L464.062 41.375C458.062 35.375 449.937 32 441.438 32H287.938V16C287.938 7.125 280.813 0 271.938 0H239.938C231.062 0 223.938 7.125 223.938 16V32H55.938C42.688 32 31.938 42.75 31.938 56V136C31.938 149.25 42.688 160 55.938 160H441.438C449.937 160 458.062 156.625 464.062 150.625L507.312 107.375C513.562 101 513.562 91 507.312 84.75Z"/></svg>
